component-icons/svg/treemap.svg

<?xml version="1.0" encoding="utf-8"?>
<!-- Generator: Adobe Illustrator 14.0.0, SVG Export Plug-In . SVG Version: 6.00 Build 43363)  -->
<!DOCTYPE svg PUBLIC "-//W3C//DTD SVG 1.1//EN" "http://www.w3.org/Graphics/SVG/1.1/DTD/svg11.dtd">
<svg version="1.1" id="Layer_1" xmlns="http://www.w3.org/2000/svg" xmlns:xlink="http://www.w3.org/1999/xlink" x="0px" y="0px"
	 width="24px" height="24px" viewBox="0 0 24 24" enable-background="new 0 0 24 24" xml:space="preserve">
<path fill="#818181" d="M1,0v24h22V0H1z M3,22V12h8v10H3z M13,22v-4h3v4H13z M18,22v-4h3v4H18z M21,16h-8v-4h8V16z M21,10H3V2h18V10
	z"/>
</svg>

<svg id="Layer_1" data-name="Layer 1" xmlns="http://www.w3.org/2000/svg" viewBox="0 0 24 24">
  <defs>
    <style>
      .cls-1 {
        fill: gray;
      }
    </style>
  </defs>
  <title>treemap</title>
  <path class="cls-1" d="M1,0V24H23V0ZM11,22H3V12h8Zm5,0H13V18h3Zm5,0H18V18h3Zm0-6H13V12h8Zm0-6H3V2H21Z"/>
</svg>
